Numix-GalliumOS/16/mimetypes/audio-x-smart-playlist.svg

<?xml version="1.0" encoding="UTF-8" standalone="no"?>
<svg
   xmlns:dc="http://purl.org/dc/elements/1.1/"
   xmlns:cc="http://creativecommons.org/ns#"
   xmlns:rdf="http://www.w3.org/1999/02/22-rdf-syntax-ns#"
   xmlns:svg="http://www.w3.org/2000/svg"
   xmlns="http://www.w3.org/2000/svg"
   xmlns:sodipodi="http://sodipodi.sourceforge.net/DTD/sodipodi-0.dtd"
   xmlns:inkscape="http://www.inkscape.org/namespaces/inkscape"
   width="16"
   height="16"
   viewBox="0 0 16 16"
   id="svg2"
   version="1.1"
   inkscape:version="0.48.5 r10040"
   sodipodi:docname="audio-x-smart-playlist.svg">
  <metadata
     id="metadata26">
    <rdf:RDF>
      <cc:Work
         rdf:about="">
        <dc:format>image/svg+xml</dc:format>
        <dc:type
           rdf:resource="http://purl.org/dc/dcmitype/StillImage" />
      </cc:Work>
    </rdf:RDF>
  </metadata>
  <defs
     id="defs24" />
  <sodipodi:namedview
     pagecolor="#ffffff"
     bordercolor="#666666"
     borderopacity="1"
     objecttolerance="10"
     gridtolerance="10"
     guidetolerance="10"
     inkscape:pageopacity="0"
     inkscape:pageshadow="2"
     inkscape:window-width="1280"
     inkscape:window-height="970"
     id="namedview22"
     showgrid="true"
     inkscape:zoom="29.5"
     inkscape:cx="8.1143198"
     inkscape:cy="6.2642343"
     inkscape:window-x="0"
     inkscape:window-y="0"
     inkscape:window-maximized="1"
     inkscape:current-layer="svg2">
    <inkscape:grid
       type="xygrid"
       id="grid3029" />
  </sodipodi:namedview>
  <path
     style="fill:#9b4a85;fill-opacity:1"
     d="M 2.6679691,-4.4577e-4 C 2.3242191,-4.4577e-4 2,0.3378122 2,0.6964469 L 2,15.303108 C 2,15.641365 2.34375,16 2.6679691,16 L 13.332031,16 C 13.65625,16 14,15.641365 14,15.303108 L 14,3.9995542 9.9999999,-4.4577e-4 z"
     id="path4"
     inkscape:connector-curvature="0"
     sodipodi:nodetypes="ssssssccs" />
  <path
     style="fill:#000000;fill-opacity:0.19599998"
     d="m 10.583223,3.3315852 0.0154,0.019531 0.04005,-0.019531 z m 0.02978,0.667969 3.386999,3.664062 0,-3.664062 z"
     id="path6"
     inkscape:connector-curvature="0"
     sodipodi:nodetypes="cccccccc" />
  <path
     style="fill:#ffffff;fill-opacity:0.39200003"
     d="m 9.9999999,-4.4577e-4 3.9963961,3.99999997 -3.383784,0 c -0.299099,0 -0.6126122,-0.3171171 -0.6126122,-0.6162164 z"
     id="path8"
     inkscape:connector-curvature="0"
     sodipodi:nodetypes="ccssc" />
  <path
     style="fill:#ffffff"
     inkscape:connector-curvature="0"
     id="path12"
     d="M 7.002593,6.2430761 C 6.5191126,6.3682083 6.1088871,6.8236863 6.1088871,6.8236863 l 0.014651,0.015015 0.7764985,2.9631067 C 6.3433014,9.491484 5.5472683,9.571567 4.8928616,10.057076 c -0.8497522,0.625657 -1.1476549,1.701785 -0.6544067,2.392509 0.493247,0.690725 1.5774138,0.735771 2.4271672,0.110119 0.6690579,-0.495521 1.0402143,-1.276339 0.9083558,-1.922016 -0.00489,-0.02003 -0.00976,-0.03505 -0.019534,-0.05506 L 6.8121309,7.6195212 c 0.014651,-0.025026 0.2344145,-0.1251309 0.9376582,-0.1751841 0.7471974,-0.055057 1.250211,-1.2763375 1.250211,-1.2763375 0,0 -0.8351022,0.3253409 -1.4992769,0.090094 C 7.3395635,6.1980293 7.1637526,6.1980293 7.002593,6.2430761 z" />
  <path
     style="fill:#ffffff"
     inkscape:connector-curvature="0"
     id="path20"
     d="m 10.374817,6 c -0.07028,0 -0.127379,0.052786 -0.127379,0.1231672 l 0,0.281525 c -0.122987,0.030792 -0.241582,0.079178 -0.3469988,0.145161 L 9.7027818,6.3519062 c -0.048317,-0.048387 -0.1273789,-0.048387 -0.1756955,0 L 9.3513909,6.5278593 c -0.048317,0.048387 -0.048317,0.1275658 0,0.1759531 L 9.549048,6.9017594 C 9.483163,7.0073313 9.4348465,7.1260999 9.4040995,7.2492671 l -0.2811127,0 C 9.0571007,7.2492671 9,7.3064516 9,7.3768328 l 0,0.2463344 c 0,0.070381 0.057101,0.1275657 0.1229868,0.1275657 l 0.2811127,0 c 0.030747,0.1231672 0.079064,0.2419358 0.1449485,0.3475077 l -0.1976571,0.197947 c -0.048317,0.048387 -0.048317,0.1275657 0,0.1759531 l 0.1756954,0.1759531 c 0.048317,0.048387 0.127379,0.048387 0.1756955,0 l 0.1976574,-0.197947 c 0.1054168,0.065983 0.2240118,0.114369 0.3469988,0.145161 l 0,0.281525 C 10.247438,8.9472141 10.304538,9 10.374817,9 l 0.250365,0 c 0.07028,0 0.122988,-0.052786 0.122988,-0.1231672 l 0,-0.281525 c 0.127379,-0.030792 0.241581,-0.079178 0.346998,-0.145161 l 0.20205,0.197947 c 0.04832,0.048387 0.127379,0.048387 0.175696,0 l 0.175695,-0.1759531 c 0.04832,-0.048387 0.04832,-0.1275658 0,-0.1759531 l -0.20205,-0.197947 c 0.07028,-0.1055719 0.118594,-0.2243405 0.144949,-0.3475077 l 0.281113,0 C 11.942899,7.7507329 12,7.6935484 12,7.6231672 L 12,7.3768328 C 12,7.3064516 11.9429,7.2492671 11.872621,7.2492671 l -0.281113,0 C 11.565153,7.1260999 11.516837,7.0073313 11.446559,6.9017594 l 0.20205,-0.197947 c 0.04832,-0.048387 0.04832,-0.1275657 0,-0.1759531 L 11.472914,6.3519062 c -0.04832,-0.048387 -0.127379,-0.048387 -0.175696,0 l -0.20205,0.197947 C 10.989751,6.4838705 10.875549,6.4354842 10.74817,6.4046922 l 0,-0.281525 C 10.74817,6.0527859 10.69546,6 10.625182,6 z m 0.122986,0.9985342 c 0.276721,0 0.500733,0.2243394 0.500733,0.5014658 0,0.2771264 -0.224012,0.5014658 -0.500733,0.5014658 -0.272327,0 -0.496339,-0.2243394 -0.496339,-0.5014658 0,-0.2771264 0.224012,-0.5014658 0.496339,-0.5014658 z" />
  <path
     style="fill:#ffffff"
     inkscape:connector-curvature="0"
     id="path14"
     d="m 17.423729,8.3050845 0,-1 2,0 0,1 z" />
  <path
     style="fill:#ffffff"
     inkscape:connector-curvature="0"
     id="path22"
     d="m 8.0000001,10 0,1 L 12,11 12,10 z" />
  <path
     style="fill:#ffffff"
     inkscape:connector-curvature="0"
     id="path24"
     d="m 8.0000001,12 0,1 L 12,13 12,12 z" />
</svg>

<svg xmlns="http://www.w3.org/2000/svg" viewBox="0 0 16 16">
 <path d="m 2.668 0 c -0.344 0 -0.668 0.338 -0.668 0.697 l 0 14.607 c 0 0.338 0.344 0.697 0.668 0.697 l 10.664 0 c 0.324 0 0.668 -0.359 0.668 -0.697 l 0 -11.304 -4 -4 z" style="fill:#9b4a85;fill-opacity:1"/>
 <path d="m 10.583 3.332 0.015 0.02 0.04 -0.02 z m 0.03 0.668 3.387 3.664 0 -3.664 z" style="fill:#000;fill-opacity:0.196"/>
 <path d="m 10 0 3.996 4 -3.384 0 c -0.299 0 -0.613 -0.317 -0.613 -0.616 z" style="fill:#fff;fill-opacity:0.392"/>
 <path d="m 7 6.243 c -0.483 0.125 -0.894 0.581 -0.894 0.581 l 0.015 0.015 0.776 2.963 c -0.557 -0.31 -1.353 -0.23 -2.01 0.255 c -0.85 0.626 -1.148 1.702 -0.654 2.393 0.493 0.691 1.577 0.736 2.427 0.11 0.669 -0.496 1.04 -1.276 0.908 -1.922 -0.005 -0.02 -0.01 -0.035 -0.02 -0.055 l -0.742 -2.963 c 0.015 -0.025 0.234 -0.125 0.938 -0.175 0.747 -0.055 1.25 -1.276 1.25 -1.276 0 0 -0.835 0.325 -1.499 0.09 c -0.161 -0.06 -0.337 -0.06 -0.498 -0.015 z" style="fill:#fff"/>
 <path d="m 10.375 6 c -0.07 0 -0.127 0.053 -0.127 0.123 l 0 0.282 c -0.123 0.031 -0.242 0.079 -0.347 0.145 l -0.198 -0.198 c -0.048 -0.048 -0.127 -0.048 -0.176 0 l -0.176 0.176 c -0.048 0.048 -0.048 0.128 0 0.176 l 0.198 0.198 c -0.066 0.106 -0.114 0.224 -0.145 0.348 l -0.281 0 c -0.066 0 -0.123 0.057 -0.123 0.128 l 0 0.246 c 0 0.07 0.057 0.128 0.123 0.128 l 0.281 0 c 0.031 0.123 0.079 0.242 0.145 0.348 l -0.198 0.198 c -0.048 0.048 -0.048 0.128 0 0.176 l 0.176 0.176 c 0.048 0.048 0.127 0.048 0.176 0 l 0.198 -0.198 c 0.105 0.066 0.224 0.114 0.347 0.145 l 0 0.282 c 0 0.07 0.057 0.123 0.127 0.123 l 0.25 0 c 0.07 0 0.123 -0.053 0.123 -0.123 l 0 -0.282 c 0.127 -0.031 0.242 -0.079 0.347 -0.145 l 0.202 0.198 c 0.048 0.048 0.127 0.048 0.176 0 l 0.176 -0.176 c 0.048 -0.048 0.048 -0.128 0 -0.176 l -0.202 -0.198 c 0.07 -0.106 0.119 -0.224 0.145 -0.348 l 0.281 0 c 0.07 0 0.127 -0.057 0.127 -0.128 l 0 -0.246 c 0 -0.07 -0.057 -0.128 -0.127 -0.128 l -0.281 0 c -0.026 -0.123 -0.075 -0.242 -0.145 -0.348 l 0.202 -0.198 c 0.048 -0.048 0.048 -0.128 0 -0.176 l -0.176 -0.176 c -0.048 -0.048 -0.127 -0.048 -0.176 0 l -0.202 0.198 c -0.105 -0.066 -0.22 -0.114 -0.347 -0.145 l 0 -0.282 c 0 -0.07 -0.053 -0.123 -0.123 -0.123 z m 0.123 0.999 c 0.277 0 0.501 0.224 0.501 0.501 0 0.277 -0.224 0.501 -0.501 0.501 -0.272 0 -0.496 -0.224 -0.496 -0.501 0 -0.277 0.224 -0.501 0.496 -0.501 z" style="fill:#fff"/>
 <path d="m 8 10 0 1 l 4 0 0 -1 z" style="fill:#fff"/>
 <path d="m 8 12 0 1 l 4 0 0 -1 z" style="fill:#fff"/>
</svg>
